!!!COM: Anton (Friedrich Wilhelm von) Webern
!!!OTL: [T417_Web-w12p8m1-9]
**kern	**dynam	**kern	**dynam	**kern	**dynam	**kern	**dynam
*part4	*part4	*part3	*part3	*part2	*part2	*part1	*part1
*staff4	*	*staff3	*	*staff2	*	*staff1	*
*I"Violoncello	*	*I"Viola	*	*I"Violin II	*	*I"Violin I	*
*I'Vc.	*	*I'Vla.	*	*I'Vln. II	*	*I'Vln. I	*
!!pagebreak:original
*clefF4	*	*clefC3	*	*clefG2	*	*clefG2	*
*k[]	*	*k[]	*	*k[]	*	*k[]	*
*C:	*	*C:	*	*C:	*	*C:	*
*M3/4	*	*M3/4	*	*M3/4	*	*M3/4	*
=1	=1	=1	=1	=1	=1	=1	=1
!	!	!	!	!	!	!LO:TX:a:B:t=Fließend (q ca. 84)	!
!LO:TX:a:t=mit Dämpfer	!	!LO:TX:a:t=mit Dämpfer	!	!LO:TX:a:t=mit Dämpfer	!	!LO:TX:a:t=mit Dämpfer	!
4r	.	8r	.	8r	.	4r	.
.	.	4En~ 4An	ppp <	4aan`~	ppp <	.	.
8r	.	.	.	.	.	4bb-XT	ppp
4Cn`~ 4Fn	pp <	8r	[	8r	[	.	.
!	!	!LO:TX:b:t=am Steg	!	!LO:TX:b:t=am Steg	!	!	!
.	.	8ee-X`L	pp >	8ccc#X`L	pp >	8r	< [
8r	[	8ffn`J	]	8bbn`J	]	8f#X` 8bn	pp
=2	=2	=2	=2	=2	=2	=2	=2
!	!	!	!	!	!	!LO:TX:a:t=rit.	!
4A-X` 4d-X	pp < [ > ]	4r	.	4r	.	8r	.
!	!	!	!	!	!	!LO:TX:a:t=pizz.	!
.	.	.	.	.	.	8Gn~	.
*clefC4	*	*	*	*	*	*	*
!	!	!LO:TX:b:t=am Steg	!	!LO:TX:a:t=am Steg	!	!	!
8r	.	8ee-X~	pp <	8an`~	pp <	8r	pp
!	!	!	!	!	!	!LO:TX:a:t=arco	!
8dn`~ 8gn	p >	8r	[	8r	[	8c#X`	< [
4r	]	4ent	pp > ]	4r	.	4r	> ]
=3	=3	=3	=3	=3	=3	=3	=3
!	!	!LO:TX:a:t=am Steg	!	!	!	!LO:TX:a:B:t=tempo	!
12r	.	12r	.	12r	.	12r	.
12Bn`~ 12en	pp <	12b-X~	pp <	12fn~ 12b-X	pp <	12ccn~ 12ffn	pp <
12r	[	12r	.	12r	.	12r	.
12r	.	8r	[	4ff#Xt	pp [ <	8r	[
6bn~^ 6een	p <	.	.	.	.	.	.
!	!	!LO:TX:a:t=arco	!	!	!	!LO:TX:a:t=pizz.	!
.	.	8cn`	p	.	.	8aan'	pp
*clefF4	*	*clefG2	*	*	*	*	*
!	!	!	!	!	!	!LO:TX:a:t=arco	!
.	.	4qqggn\	.	.	.	.	.
8r	[	4r	.	4r	[	4G#X	p < [
(8qCC#X/ 8qAAn	p <	.	.	.	.	.	.
[8dn)	.	.	.	.	.	.	.
!!linebreak:original
=4	=4	=4	=4	=4	=4	=4	=4
*	*	*	*	*tremolo	*	*	*
!	!	!	!	!	!	!LO:TX:a:t=rit.	!
!	!	!	!	!	!	!LO:TX:a:t=pizz.	!
12dL]	[	8r	.	32ee-X 32aa-X	p <	8r	.
.	.	.	.	32ee-X 32aa-X	.	.	.
.	.	.	.	32ee-X 32aa-X	.	.	.
12r	.	.	.	.	.	.	.
.	.	.	.	32ee-X 32aa-X	.	.	.
.	.	(8bnL	p <	8r	[	8eeen~	pp
12FFn`~J 12BB-X	p	.	.	.	.	.	.
!	!	!	!	!	!	!LO:TX:a:t=arco	!
8.r	.	8bb-X	[	16r	.	12r	.
.	.	.	.	8an`~	ppp	.	.
.	.	.	.	.	.	12gg#X~	<
.	.	8eenJ	>	.	.	.	.
.	.	.	.	.	.	12r	[
!LO:TX:a:t=pizz.	!	!	!	!	!	!	!
16FF#X'	pp	.	.	16r	.	.	.
4r	.	8gn)	.	12r	.	8r	.
.	.	.	.	6cn	pp < [	.	.
!	!	!	!	!	!	!LO:TX:a:B:t=tempo	!
.	.	8r	]	.	.	[8ffn [8bb-X	p < [
=5	=5	=5	=5	=5	=5	=5	=5
4r	.	8r	.	4cc#X 4ff#X	f <	12ffL] 12bb-]	f
.	.	.	.	.	.	12r	.
*	*	*clefC3	*	*	*	*	*
.	.	8gn`	f <	.	.	.	.
.	.	.	.	.	.	[12aanJ [12dddn	ff <
*clefC4	*	*	*	*	*	*	*
!LO:TX:b:t=am Steg	!	!	!	!	!	!	!
!LO:TX:a:t=arco	!	!	!	!LO:TX:a:t=am Steg	!	!	!
.	.	4qqeen\	[	.	.	.	.
2a-Xt	f < [	8r	.	8r	[	8aa] 8ddd]	.
*	*	*tremolo	*	*	*	*	*
.	.	32e-X 32a-XLLL	sf < [	32ggn 32fff#XLLL	sf < [	8r	[
.	.	32e-X 32a-X	.	32ggn 32fff#X	.	.	.
.	.	32e-X 32a-X	.	32ggn 32fff#X	.	.	.
.	.	32e-X 32a-X	.	32ggn 32fff#X	.	.	.
.	.	32e-X 32a-X	.	32ggn 32fff#X	.	16r	.
.	.	32e-X 32a-X	.	32ggn 32fff#X	.	.	.
.	.	32e-X 32a-X	.	32ggn 32fff#X	.	16Bn~LL	f
.	.	32e-X 32a-X	.	32ggn 32fff#X	.	.	.
.	.	32e-X 32a-X	.	32ggn 32fff#X	.	16een~	<
.	.	32e-X 32a-X	.	32ggn 32fff#X	.	.	.
!	!	!	!	!	!	!LO:TX:b:t=sff	!
.	.	32e-X 32a-X	.	32ggn 32fff#X	.	[16cccn~JJ	[
.	.	32e-X 32a-XJJJ	.	32ggn 32fff#XJJJ	.	.	.
*	*	*Xtremolo	*	*	*	*	*
=6	=6	=6	=6	=6	=6	=6	=6
!	!	!	!	!	!	!LO:TX:a:t=rit.	!
!	!	!	!	!	!	!LO:TX:a:i:t=(lang)	!
4r;	.	4r;	.	4r;	.	4.ccc;]	>
!	!	!	!	!LO:TX:a:t=pizz.	!	!	!
8r	.	8C#X`~ 8F#X	ppp	12r	.	.	.
!	!	!	!	!LO:TX:a:i:t=sehr zart	!	!	!
.	.	.	.	12dn~L	ppp	.	.
*clefF4	*	*	*	*	*	*	*
(4EEn 4AA	pp >	8r	.	.	.	8r	pp ]
.	.	.	.	12B-X~J	< >	.	.
.	.	4r	.	8an~	]	16r	.
.	.	.	.	.	.	[8.f#X	pp < [
4qqGGn/	ppp ]	.	.	.	.	.	.
8Fn)	.	.	.	8r	]	.	.
!!pagebreak:original
=7	=7	=7	=7	=7	=7	=7	=7
!	!	!	!	!	!	!LO:TX:a:t=rit.	!
!	!	!	!	!	!	!LO:TX:a:B:t=tempo	!
8r	.	8r	.	4r	.	4f#]	>
4CCn~ 4E-X	pp <	4Bn~	pp <	.	.	.	.
!	!	!	!	!LO:TX:a:t=arco	!	!	!
.	.	.	.	12r	.	4r;	]
.	.	.	.	[6ggn	p <	.	.
8r;	[	8r;	[	.	.	.	.
4r	.	8r	.	4gg]	] > ]	4r	.
.	.	8A-X`~	pp < [ > ]	.	.	.	.
*clefC4	*	*	*	*	*	*	*
=8	=8	=8	=8	=8	=8	=8	=8
!LO:TX:b:t=am Steg	!	!	!	!	!	!	!
2.ddnT	pp	4r	ppp	4r	.	4r	.
*	*	*clefG2	*	*	*	*	*
!	!	!	!	!	!	!LO:TX:a:t=am Griffbrett	!
.	.	4een 4aan	< [ >	4en 4an	ppp < [	8r	.
.	.	.	.	.	.	[4.cc#X	pp < [
.	.	4r	]	4r	> ]	.	.
=9	=9	=9	=9	=9	=9	=9	=9
!	!	!	!	!LO:TX:a:t=am Steg	!	!	!
8.r	.	4r	.	32ccnLLL	pp >	8cc#]	>
.	.	.	.	32ccn	.	.	.
.	.	.	.	32ccn	.	.	.
.	.	.	.	32ccn	.	.	.
.	.	.	.	32ccn	.	8r	]
.	.	.	.	32ccn	.	.	.
!LO:TX:a:i:t=sehr zart	!	!	!	!	!	!	!
(16a#X	ppp	.	.	32ccn	.	.	.
.	.	.	.	32ccnJJJ	.	.	.
!	!	!	!	!	!	!LO:TX:a:t=am Steg	!
4bn)	>	4r	.	48ccLLL	.	4r	.
.	.	.	.	48cc	.	.	.
.	.	.	.	48cc	.	.	.
.	.	.	.	48cc	.	.	.
.	.	.	.	48cc	.	.	.
.	.	.	.	48cc	.	.	.
.	.	.	.	48cc	.	.	.
.	.	.	.	48ccJJJ	.	.	.
*	*	*	*	*Xtremolo	*	*	*
.	.	.	.	12r	]	.	.
*	*	*clefC3	*	*	*	*	*
!	!	!	!	!	!	!LO:TX:t=[quarter]=42	!
4r	]	4gnT	ppp > ]	4r	.	[8g#X~L	ppp <
.	.	.	.	.	.	8g#~J]	] > ]
==	==	==	==	==	==	==	==
*-	*-	*-	*-	*-	*-	*-	*-
!!!system-decoration: [(s1,s2,s3,s4)]
